src/layouts/favicon.svg

<svg width="31" height="22" viewBox="0 0 31 22" fill="none" xmlns="http://www.w3.org/2000/svg">
<path d="M6.95194 21.32C6.23194 21.32 5.60794 21.184 5.07994 20.912C4.56794 20.64 4.16794 20.24 3.87994 19.712C3.60794 19.184 3.47194 18.56 3.47194 17.84V14.168C3.47194 13.544 3.36794 13.088 3.15994 12.8C2.96794 12.512 2.61594 12.36 2.10394 12.344C1.67194 12.312 1.34394 12.144 1.11994 11.84C0.895937 11.52 0.783937 11.144 0.783937 10.712C0.783937 10.264 0.895937 9.888 1.11994 9.584C1.34394 9.28 1.67194 9.112 2.10394 9.08C2.61594 9.048 2.96794 8.896 3.15994 8.624C3.36794 8.336 3.47194 7.88 3.47194 7.256V3.56C3.47194 2.456 3.77594 1.6 4.38394 0.991999C5.00794 0.383999 5.86394 0.079999 6.95194 0.079999H8.70394C9.21594 0.079999 9.63194 0.231999 9.95194 0.535999C10.2879 0.823999 10.4559 1.2 10.4559 1.664C10.4559 2.112 10.3279 2.488 10.0719 2.792C9.81594 3.08 9.46394 3.224 9.01594 3.224H8.60794C8.31994 3.224 8.10394 3.312 7.95994 3.488C7.81594 3.648 7.74394 3.904 7.74394 4.256V7.784C7.74394 8.296 7.63194 8.784 7.40794 9.248C7.18394 9.696 6.87994 10.064 6.49594 10.352C6.12794 10.64 5.72794 10.784 5.29594 10.784V10.688C5.72794 10.688 6.12794 10.824 6.49594 11.096C6.87994 11.368 7.18394 11.736 7.40794 12.2C7.63194 12.648 7.74394 13.128 7.74394 13.64V17.144C7.74394 17.496 7.81594 17.752 7.95994 17.912C8.10394 18.088 8.32794 18.176 8.63194 18.176H9.01594C9.46394 18.176 9.81594 18.32 10.0719 18.608C10.3279 18.912 10.4559 19.288 10.4559 19.736C10.4559 20.2 10.2879 20.576 9.95194 20.864C9.63194 21.168 9.21594 21.32 8.70394 21.32H6.95194ZM22.4206 21.32C21.9086 21.32 21.4846 21.168 21.1486 20.864C20.8286 20.576 20.6686 20.2 20.6686 19.736C20.6686 19.288 20.7886 18.912 21.0286 18.608C21.2846 18.32 21.6446 18.176 22.1086 18.176H22.4926C22.7966 18.176 23.0126 18.088 23.1406 17.912C23.2846 17.752 23.3566 17.496 23.3566 17.144V13.64C23.3566 13.128 23.4766 12.648 23.7166 12.2C23.9566 11.736 24.2606 11.368 24.6286 11.096C24.9966 10.808 25.3966 10.664 25.8286 10.664V10.76C25.3966 10.76 24.9966 10.624 24.6286 10.352C24.2606 10.064 23.9566 9.696 23.7166 9.248C23.4766 8.784 23.3566 8.296 23.3566 7.784V4.256C23.3566 3.904 23.2846 3.648 23.1406 3.488C23.0126 3.312 22.7966 3.224 22.4926 3.224H22.1086C21.6446 3.224 21.2846 3.08 21.0286 2.792C20.7886 2.488 20.6686 2.112 20.6686 1.664C20.6686 1.2 20.8286 0.823999 21.1486 0.535999C21.4846 0.231999 21.9086 0.079999 22.4206 0.079999H24.1486C24.8846 0.079999 25.5086 0.215999 26.0206 0.487999C26.5486 0.76 26.9486 1.16 27.2206 1.688C27.4926 2.2 27.6286 2.824 27.6286 3.56V7.256C27.6286 7.88 27.7326 8.336 27.9406 8.624C28.1486 8.896 28.5086 9.048 29.0206 9.08C29.4526 9.112 29.7806 9.28 30.0046 9.584C30.2286 9.888 30.3406 10.264 30.3406 10.712C30.3406 11.144 30.2286 11.52 30.0046 11.84C29.7806 12.144 29.4526 12.312 29.0206 12.344C28.5086 12.36 28.1486 12.512 27.9406 12.8C27.7326 13.088 27.6286 13.544 27.6286 14.168V17.84C27.6286 18.928 27.3166 19.776 26.6926 20.384C26.0846 21.008 25.2366 21.32 24.1486 21.32H22.4206Z" fill="#041A27"/>
<path d="M19.1348 2.78125L13.7637 18.2207H11.8008L17.1719 2.78125H19.1348Z" fill="#8CD1FF"/>
</svg>

<svg xmlns="http://www.w3.org/2000/svg" width="31" height="22" fill="none"><path fill="#041A27" d="M6.95 21.32c-.72 0-1.34-.14-1.87-.4a2.9 2.9 0 0 1-1.2-1.2 4.04 4.04 0 0 1-.4-1.88v-3.67c0-.63-.11-1.08-.32-1.37-.2-.29-.54-.44-1.06-.46-.43-.03-.76-.2-.98-.5-.22-.32-.34-.7-.34-1.13 0-.45.12-.82.34-1.13.22-.3.55-.47.98-.5.52-.03.87-.18 1.06-.46.2-.28.31-.74.31-1.36v-3.7c0-1.1.3-1.96.91-2.57C5.01.4 5.86.08 6.95.08H8.7c.52 0 .93.15 1.25.46.34.28.5.66.5 1.12 0 .45-.12.83-.38 1.13-.25.29-.6.43-1.05.43H8.6c-.29 0-.5.1-.65.27-.14.16-.22.41-.22.77v3.52c0 .52-.1 1-.33 1.47-.23.45-.53.81-.91 1.1a1.9 1.9 0 0 1-1.2.43v-.1c.43 0 .83.14 1.2.42a3.18 3.18 0 0 1 1.25 2.54v3.5c0 .36.07.61.21.77.14.18.37.27.67.27h.39c.44 0 .8.14 1.05.43.26.3.39.68.39 1.13 0 .46-.17.84-.5 1.12-.33.3-.74.46-1.26.46H6.95Zm15.47 0c-.51 0-.94-.15-1.27-.46a1.45 1.45 0 0 1-.48-1.12c0-.45.12-.83.36-1.13.25-.29.61-.43 1.08-.43h.38c.3 0 .52-.1.65-.27.14-.16.22-.41.22-.77v-3.5a3 3 0 0 1 .36-1.44c.24-.46.54-.83.9-1.1a1.9 1.9 0 0 1 1.2-.44v.1c-.42 0-.82-.14-1.2-.4a3.44 3.44 0 0 1-.9-1.11 3.14 3.14 0 0 1-.36-1.47V4.26c0-.36-.08-.61-.22-.77-.13-.18-.34-.27-.65-.27h-.38c-.47 0-.83-.14-1.08-.43-.24-.3-.36-.68-.36-1.13 0-.46.16-.84.48-1.12.33-.3.76-.46 1.27-.46h1.73c.73 0 1.36.14 1.87.4.53.28.93.68 1.2 1.2.27.52.4 1.14.4 1.88v3.7c0 .62.11 1.08.32 1.36.2.28.57.43 1.08.46.43.03.76.2.98.5.23.3.34.68.34 1.13 0 .43-.11.81-.34 1.13-.22.3-.55.47-.98.5-.51.02-.87.17-1.08.46-.2.29-.31.74-.31 1.37v3.67c0 1.09-.31 1.94-.94 2.54-.6.63-1.45.94-2.54.94h-1.73Z"/><path fill="#8CD1FF" d="m19.13 2.78-5.37 15.44H11.8l5.37-15.44h1.96Z"/></svg>
